!!!OTL: "Jagdglueck" ES ZOG EIN JAEGER WOHLGEMUTH
!!!ARE: Europa, Mitteleuropa, Deutschland, Schwaben
!!!SCT: Z1101
!!!YEM: Copyright 1995, estate of Helmut Schaffrath.
**kern
*ICvox
*Ivox
*M6/8
*k[f#c#]
*D:
{8A
=1
4A
8F#
4A
8F#
=2
4d
8B
4A
8A
=3
4d
8A
4d
8e
=4
4.f#
8e
8r}
{8A
=5
4A
8F#
4A
8F#
=6
8d
8c#
8B
4A
8A
=7
4d
8A
4d
8e
=8
4.f#
8e
8r}
{8e
=9
4e
8d
4c#
8e
=10
8e
8f#
8d
4c#
8e
=11
4e
8e
4f#
8e
=12
8d
8e
8f#
4e}
{8d
=13
4.d
4A
8f#
=14
4.f#
4d
8f#
=15
4a
8f#
8a
8g
8f#
=16
4.e
8e
8d}
{8e
=17
4.f#
4.e
=18
[4.d
4d]}
==
!!!AGN: Romanze, Ballade, Jaeger - Lied
!!!ONB: ESAC (Essen Associative Code) Database: ZUCCAL
!!!AMT: compound duple
!!!AIN: vox
!!!EED: Helmut Schaffrath
!!!EEV: 1.0
*-
